X:1
T:Title
%%score { ( 1 4 ) | ( 2 3 ) }
L:1/8
Q:1/4=116
M:3/4
K:Eb
V:1 treble nm="Grand Piano"
V:4 treble 
V:2 bass 
V:3 bass 
V:1
 B2 G2 [FA]2 | [GB]2 [Ge]2 [Ac]2 | [GB]2 [B,FA]2 [B,EG]2 | [B,DA]4 [B,DA]2 | [DFA]2 [=EG]2 [DFA]2 | %5
w: Arthur~W.~McKee * *|||||
 [DAc]2 [DAd]2 [DAc]2 | [GB]6- | [GB]4 z2 | B2 G2 [FA]2 | [GB]2 [Ge]2 [Ac]2 | [GB]2 G2 E2 | c4 c2 | %12
w: |||||||
 c3 =B c2 | F2 G2 =A2 | [DB-]4 B2- | B6 | [EGB]2 [B,EG]2 [B,FA]2 | [GB]2 [Ac]2 [EG]2 | %18
w: ||||||
 [EB]2 [DA]3 [_DG] | [DA]6 | [Dc]2 [DF]2 [DG]2 | [DA]2 [DB]2 [Dc]2 | c2 B3 G | [GB]6 | %24
w: ||||||
 [Ge]2 [Bd]2 [Ac]2 | [GB]2 G2 E2 | c2 c2 d2 | [Ge]6 | [Ae]2 [Bd]2 [Ac]2 | %29
w: |||||
[M:15/16] [GB][Ge]/- [Ge]3- [Ge][CFA]-<[CFA] | [EG][B,DG]/- [B,DG]3- [B,DG][A,DF]-<[A,DF] | %31
w: ||
[M:3/4] [G,E]6 |] %32
w: |
V:2
 [E,G,E]2 [E,B,E]2 [E,B,]2 | [E,E]2 [E,E]2 [E,E]2 | [E,E]2 E,2 E,2 | F,4 F,2 | z2 _D2 B,,2 | %5
 B,,2 B,,2 B,,2 | E,6- | E,4 z2 | [E,G,E]2 [E,B,E]2 [E,B,]2 | [E,E]2 [E,E]2 [E,E]2 | %10
 [E,E]2 [E,B,E]2 [E,G,]2 | [A,E]4 [A,E]2 | [F,=A,E]3 [F,_A,D] [F,=A,E]2 | %13
 [F,=A,E]2 [F,B,E]2 [F,CE]2 | z2 F,2 G,2 | A,2 D4 | E,2 E,2 E,2 | [E,E]2 [E,E]2 [E,B,]2 | %18
 [B,,G,]2 [B,,F,]3 [B,,=E,] | F,2 z2 z2 | [B,,A,]2 [B,,A,]2 [B,,G,]2 | [B,,F,]2 [B,,G,]2 [C,A,]2 | %22
 [E,A,E]2 [E,G,E]3 [E,B,E] | [E,E]6 | [E,B,]2 [E,C]2 [E,D]2 | [E,E]2 [E,B,E]2 [E,G,]2 | %26
 [A,E]2 [A,E]2 [G,=B,F]2 | [C,C]6 | [A,C]2 [A,D]2 [A,E]2 | %29
[M:15/16] [E,E][E,B,]/- [E,B,]3- [E,B,]A,-<A, | B,B,,/- B,,3- B,,B,,-<B,, |[M:3/4] E,6 |] %32
V:3
 x6 | x6 | x6 | x6 | B,,4 z2 | x6 | x6 | x6 | x6 | x6 | x6 | x6 | x6 | x6 | B,,6- | B,,6 | x6 | %17
 x6 | x6 | B,,6 | x6 | x6 | x6 | x6 | x6 | x6 | x6 | x6 | x6 |[M:15/16] x15/2 | x15/2 | %31
[M:3/4] x6 |] %32
V:4
 x6 | x6 | x6 | x6 | x6 | x6 | E2 D2 C2 | B,4 z2 | x6 | x6 | x6 | x6 | x6 | x6 | B,2 z2 E2 | %15
 F2 A4 | x6 | x6 | x6 | z2 B,4 | x6 | x6 | x6 | x6 | x6 | x6 | x6 | x6 | x6 |[M:15/16] x15/2 | %30
 x15/2 |[M:3/4] x6 |] %32

